app/assets/images/info.svg

<svg width="28" height="28" viewBox="0 0 28 28" fill="none" xmlns="http://www.w3.org/2000/svg">
<path fill-rule="evenodd" clip-rule="evenodd" d="M14 25C20.0751 25 25 20.0751 25 14C25 7.92487 20.0751 3 14 3C7.92487 3 3 7.92487 3 14C3 20.0751 7.92487 25 14 25ZM14 28C21.732 28 28 21.732 28 14C28 6.26801 21.732 0 14 0C6.26801 0 0 6.26801 0 14C0 21.732 6.26801 28 14 28Z" fill="white"/>
<path d="M15.1968 20.7801C15.1968 21.1268 15.0835 21.4201 14.8568 21.6601C14.6301 21.8868 14.3435 22.0001 13.9968 22.0001C13.6501 22.0001 13.3635 21.8868 13.1368 21.6601C12.9101 21.4201 12.7968 21.1268 12.7968 20.7801V12.5201C12.7968 12.1735 12.9101 11.8868 13.1368 11.6601C13.3635 11.4201 13.6501 11.3001 13.9968 11.3001C14.3435 11.3001 14.6301 11.4201 14.8568 11.6601C15.0835 11.8868 15.1968 12.1735 15.1968 12.5201V20.7801ZM13.9768 10.0001C13.5235 10.0001 13.2035 9.92678 13.0168 9.78012C12.8301 9.63345 12.7368 9.37345 12.7368 9.00012V8.62012C12.7368 8.24678 12.8368 7.98678 13.0368 7.84012C13.2368 7.69345 13.5568 7.62012 13.9968 7.62012C14.4635 7.62012 14.7901 7.69345 14.9768 7.84012C15.1635 7.98678 15.2568 8.24678 15.2568 8.62012V9.00012C15.2568 9.38678 15.1568 9.65345 14.9568 9.80012C14.7701 9.93345 14.4435 10.0001 13.9768 10.0001Z" fill="white"/>
</svg>

<svg width="28" height="28" fill="none" xmlns="http://www.w3.org/2000/svg"><path fill-rule="evenodd" clip-rule="evenodd" d="M14 25c6.075 0 11-4.925 11-11S20.075 3 14 3 3 7.925 3 14s4.925 11 11 11zm0 3c7.732 0 14-6.268 14-14S21.732 0 14 0 0 6.268 0 14s6.268 14 14 14z" fill="#fff"/><path d="M15.197 20.78c0 .347-.113.64-.34.88-.227.227-.513.34-.86.34s-.633-.113-.86-.34a1.234 1.234 0 01-.34-.88v-8.26c0-.346.113-.633.34-.86.226-.24.513-.36.86-.36s.633.12.86.36c.227.227.34.514.34.86v8.26zM13.977 10c-.454 0-.774-.073-.96-.22-.187-.147-.28-.407-.28-.78v-.38c0-.373.1-.633.3-.78.2-.147.52-.22.96-.22.466 0 .793.073.98.22.187.147.28.407.28.78V9c0 .387-.1.653-.3.8-.187.133-.514.2-.98.2z" fill="#fff"/></svg>
